X:1
T:Egan's Polka
T:Kerry Polka
R:polka
M:2/4
L:1/8
K:D
fA BA|fA BA|d2 e>f|ed BA|fA BA|fA BA|d2 e>f|ed d>e:|
fa fe|ed BA|d2 e>f|ed BA|fa fe|ed BA|d2 e>f|ed d>e:|
</abc>
